X:1
T:Title
%%score 1 { 2 | 3 }
L:1/8
Q:1/4=103
M:4/4
K:G
V:1 treble nm="Grand Piano, Soprano"
V:2 bass nm="Choir Pad, Bass"
V:3 bass 
V:1
 D>D [DG]2 [DG]>[DG] [DG]2 | [DB]2 [DG]4 [B,D]2 | [B,D]>[B,D] [CE]2 [CE][CE] [EG]2 | %3
w: By~Samuel~E.~Good * * * * *|||
 [DF][CE] [B,D]6 | DD [DB]2 [Dd]2 [DG]2 | D[D=F] [CE]4 [Ec]2 | [CE]>[CE] [B,D]2 [DB]>[DB] [DA]2 | %7
w: ||||
 [DF]2 [DG]6 | D>D D6 | [DB]>[DG] D6 | [DG]>[DF] [CE]6 | [Ec]2 [DB]6 | DD [DB]2 [Dd]2 [DG]2 | %13
w: ||||||
 D[D=F] [CE]4 [Ec]2 | [CE]>[CE] [B,D]2 [DB]>[DB] [DA]2 | [DF]2 [DG]6- | [DG]2 z2 z4 |] %17
w: ||||
V:2
 B,>B, B,2 B,>B, B,2 | G,2 B,4 G,2 | G,>G, G,2 G,G, G,2 | G,G, G,6 | B,B, G,2 B,2 G,2 | %5
 G,G, G,4 G,2 | G,>G, G,2 G,>G, F,2 | C2 B,6 | B,>B, B,2 B,B, B,2 | G,>B, B,2 B,B, B,2 | %10
 G,>G, G,2 G,G,G,G, | G,>G, G,2 G,2 G,2 | B,B, G,2 B,2 G,2 | G,G, G,4 G,2 | G,>G, G,2 G,>G, F,2 | %15
 C2 B,6- | B,2 z2 z4 |] %17
V:3
 G,>G, G,2 G,>G, G,2 | z2 G,4 z2 | G,,>G,, C,2 C,C, C,2 | C,C, G,,6 | G,G, z2 G,2 B,,2 | %5
 B,,B,, C,4 C,2 | C,>C, D,2 D,>D, D,2 | D,2 [G,,G,]6 | G,>G, G,2 G,G, G,2 | z z/ G,/ G,2 G,G, G,2 | %10
 B,,>B,, C,2 C,C,C,C, | C,>C, G,,2 G,,2 G,,2 | G,G, z2 G,2 B,,2 | B,,B,, C,4 C,2 | %14
 C,>C, D,2 D,>D, D,2 | D,2 [G,,G,]6- | [G,,G,]2 z2 z4 |] %17

